Origami/64x64/apps/cryptomator.svg

<svg width="64" height="64" version="1.1" viewBox="0 0 64 64" xmlns="http://www.w3.org/2000/svg">
 <g transform="translate(0,-988.3622)">
  <path d="m13.999994 1015.3638s-2.999994-0.162-2.999994 2.8732v12.3632c2.67593 10.7692 9.133074 13.3798 14.15915 16.4644 1.7993 1.1044 4.304176 2.307 6.840804 2.2974 2.53663 0.02 5.041506-1.193 6.840806-2.2974 5.026076-3.0846 11.48322-5.6952 14.159148-16.4644v-12.3632c0-3.0354-2.999992-2.8732-2.999992-2.8732h-17.999962z" style="fill-rule:evenodd;opacity:.2"/>
  <path d="m31.799964 993.3622c-9.278364 0-16.799964 7.5216-16.799964 16.8v16.8h16.799964 16.799964v-16.8c0-9.2784-7.521602-16.8-16.799964-16.8zm0 6c6.185576 0 11.199974 4.6138 11.199974 10.8v11.2h-11.199974-11.199977l0.400013-11.2c0.220802-6.1822 4.614388-10.8 10.799964-10.8z" style="opacity:.2"/>
  <path d="m31.799964 992.3622c-9.278364 0-16.799964 7.5216-16.799964 16.8v16.8h16.799964 16.799964v-16.8c0-9.2784-7.521602-16.8-16.799964-16.8zm0 6c6.185576 0 11.199974 4.6138 11.199974 10.8v11.2h-11.199974-11.199977l0.400013-11.2c0.220802-6.1822 4.614388-10.8 10.799964-10.8z" style="fill:#cccccc"/>
  <path transform="translate(0,988.3622)" d="m31.800781 4c-9.278364 0-16.800781 7.522361-16.800781 16.800781v1c0-9.2784 7.522417-16.800781 16.800781-16.800781 9.278362 0 16.800781 7.522381 16.800781 16.800781v-1c0-9.27842-7.522419-16.800781-16.800781-16.800781zm-11.128906 28l-0.070313 2h0.035157l0.035156-1h11.128906 11.199219v-1h-11.199219-11.128906z" style="fill:#ffffff;opacity:.1"/>
  <path d="m13.999994 1014.3638s-2.999994-0.162-2.999994 2.8732v12.3632c2.67593 10.7692 9.133074 13.3798 14.15915 16.4644 1.7993 1.1044 4.304176 2.307 6.840804 2.2974 2.53663 0.02 5.041506-1.193 6.840806-2.2974 5.026076-3.0846 11.48322-5.6952 14.159148-16.4644v-12.3632c0-3.0354-2.999992-2.8732-2.999992-2.8732h-17.999962z" style="fill-rule:evenodd;fill:#385455"/>
  <path d="m16 1030.3622-4.273438 2.6677c1.644084 4.8094 4.146838 7.6959 6.835938 9.8047l6.4375-7.4727-2-2-4 2.0003zm32 0-3 5-4-2.0003-2 2 6.4375 7.4727c2.6891-2.1088 5.191854-4.9955 6.835938-9.8047zm-20 6.9997-4.890624 8.4805c0.687898 0.4024 1.39959 0.823 2.05078 1.2226 1.0834 0.665 2.434894 1.335 3.882812 1.7852l1.957032-9.4883zm8 0-3 2 1.957032 9.4883c1.447918-0.45 2.799412-1.1202 3.882812-1.7852 0.65119-0.3998 1.362884-0.82 2.05078-1.2226z" style="fill-rule:evenodd;opacity:.2"/>
  <path d="m16 1029.3622-4.273438 2.668c1.644084 4.8092 4.146838 7.6959 6.835938 9.8047l6.4375-7.4727-2-2-4 1z" style="fill-rule:evenodd;fill:#a2db44"/>
  <path d="m28 1036.3622-4.890624 8.4805c0.687898 0.4025 1.39959 0.823 2.05078 1.2226 1.0834 0.665 2.434894 1.3351 3.882812 1.7852l1.957032-9.4883-3-2z" style="fill-rule:evenodd;fill:#a2db44"/>
  <path d="m15 1019.362v6h8v-4z" style="fill-rule:evenodd;opacity:.2"/>
  <path d="m15 1018.3622v6h8v-4z" style="fill-rule:evenodd;fill:#a2db44"/>
  <path transform="translate(0,988.3622)" d="m32 31a4 4 0 0 0 -4 4 4 4 0 0 0 2.625 3.75l-2.625 5.25 4 2 4-2-2.623047-5.248047a4 4 0 0 0 2.623047 -3.751953 4 4 0 0 0 -4 -4z" style="opacity:.3"/>
  <path d="m48 1029.3622 4.273346 2.668c-1.644084 4.8092-4.146838 7.6958-6.835938 9.8046l-6.4375-7.4726 2-2 4.000092 1z" style="fill-rule:evenodd;fill:#a2db44"/>
  <path d="m35.999908 1036.3622 4.890624 8.4804c-0.687898 0.4026-1.39959 0.823-2.05078 1.2228-1.0834 0.665-2.434894 1.335-3.882812 1.785l-1.957032-9.4882 3-2z" style="fill-rule:evenodd;fill:#a2db44"/>
  <path d="m48.999908 1019.362v6h-8v-4z" style="fill-rule:evenodd;opacity:.2"/>
  <path d="m48.999908 1018.3622v6h-8v-4z" style="fill-rule:evenodd;fill:#a2db44"/>
  <path transform="translate(0,988.3622)" d="m14 26s-3-0.1602-3 2.875v1c0-3.0352 3-2.875 3-2.875h18 18s3-0.1604 3 2.875v-1c0-3.0354-3-2.875-3-2.875h-18-18z" style="fill-rule:evenodd;fill:#ffffff;opacity:.1"/>
 </g>
</svg>

<svg xmlns="http://www.w3.org/2000/svg" width="64" height="64" version="1.1" viewBox="0 0 64 64">
 <g transform="translate(0,-988.3622)">
  <path style="opacity:0.2;fill-rule:evenodd" d="m 13.999994,1015.3638 c 0,0 -2.999994,-0.162 -2.999994,2.8732 l 0,12.3632 c 2.67593,10.7692 9.133074,13.3798 14.15915,16.4644 1.7993,1.1044 4.304176,2.307 6.840804,2.2974 2.53663,0.02 5.041506,-1.193 6.840806,-2.2974 5.026076,-3.0846 11.48322,-5.6952 14.159148,-16.4644 l 0,-12.3632 c 0,-3.0354 -2.999992,-2.8732 -2.999992,-2.8732 l -17.999962,0 z"/>
  <path style="opacity:0.2" d="M 31.799964,993.3622 C 22.5216,993.3622 15,1000.8838 15,1010.1622 l 0,16.8 16.799964,0 16.799964,0 0,-16.8 c 0,-9.2784 -7.521602,-16.8 -16.799964,-16.8 z m 0,6 c 6.185576,0 11.199974,4.6138 11.199974,10.8 l 0,11.2 -11.199974,0 -11.199977,0 0.400013,-11.2 c 0.220802,-6.1822 4.614388,-10.8 10.799964,-10.8 z"/>
  <path style="fill:#cccccc" d="M 31.799964,992.3622 C 22.5216,992.3622 15,999.8838 15,1009.1622 l 0,16.8 16.799964,0 16.799964,0 0,-16.8 c 0,-9.2784 -7.521602,-16.8 -16.799964,-16.8 z m 0,6 c 6.185576,0 11.199974,4.6138 11.199974,10.8 l 0,11.2 -11.199974,0 -11.199977,0 0.400013,-11.2 c 0.220802,-6.1822 4.614388,-10.8 10.799964,-10.8 z"/>
  <path style="opacity:0.1;fill:#ffffff" d="M 31.800781 4 C 22.522417 4 15 11.522361 15 20.800781 L 15 21.800781 C 15 12.522381 22.522417 5 31.800781 5 C 41.079143 5 48.601562 12.522381 48.601562 21.800781 L 48.601562 20.800781 C 48.601562 11.522361 41.079143 4 31.800781 4 z M 20.671875 32 L 20.601562 34 L 20.636719 34 L 20.671875 33 L 31.800781 33 L 43 33 L 43 32 L 31.800781 32 L 20.671875 32 z" transform="translate(0,988.3622)"/>
  <path style="fill:#385455;fill-rule:evenodd" d="m 13.999994,1014.3638 c 0,0 -2.999994,-0.162 -2.999994,2.8732 l 0,12.3632 c 2.67593,10.7692 9.133074,13.3798 14.15915,16.4644 1.7993,1.1044 4.304176,2.307 6.840804,2.2974 2.53663,0.02 5.041506,-1.193 6.840806,-2.2974 5.026076,-3.0846 11.48322,-5.6952 14.159148,-16.4644 l 0,-12.3632 c 0,-3.0354 -2.999992,-2.8732 -2.999992,-2.8732 l -17.999962,0 z"/>
  <path style="opacity:0.2;fill-rule:evenodd" d="m 16,1030.3622 -4.273438,2.6677 c 1.644084,4.8094 4.146838,7.6959 6.835938,9.8047 l 6.4375,-7.4727 -2,-2 -4,2.0003 z m 32,0 -3,5 -4,-2.0003 -2,2 6.4375,7.4727 c 2.6891,-2.1088 5.191854,-4.9955 6.835938,-9.8047 z m -20,6.9997 -4.890624,8.4805 c 0.687898,0.4024 1.39959,0.823 2.05078,1.2226 1.0834,0.665 2.434894,1.335 3.882812,1.7852 L 31,1039.3619 Z m 8,0 -3,2 1.957032,9.4883 c 1.447918,-0.45 2.799412,-1.1202 3.882812,-1.7852 0.65119,-0.3998 1.362884,-0.82 2.05078,-1.2226 z"/>
  <path style="fill:#a2db44;fill-rule:evenodd" d="m 16,1029.3622 -4.273438,2.668 c 1.644084,4.8092 4.146838,7.6959 6.835938,9.8047 l 6.4375,-7.4727 -2,-2 -4,1 z"/>
  <path style="fill:#a2db44;fill-rule:evenodd" d="m 28,1036.3622 -4.890624,8.4805 c 0.687898,0.4025 1.39959,0.823 2.05078,1.2226 1.0834,0.665 2.434894,1.3351 3.882812,1.7852 L 31,1038.3622 l -3,-2 z"/>
  <path style="opacity:0.2;fill-rule:evenodd" d="m 15,1019.362 0,6 8,0 0,-4 z"/>
  <path style="fill:#a2db44;fill-rule:evenodd" d="m 15,1018.3622 0,6 8,0 0,-4 z"/>
  <path style="opacity:0.3" d="M 32 31 A 4 4 0 0 0 28 35 A 4 4 0 0 0 30.625 38.75 L 28 44 L 32 46 L 36 44 L 33.376953 38.751953 A 4 4 0 0 0 36 35 A 4 4 0 0 0 32 31 z" transform="translate(0,988.3622)"/>
  <path style="fill:#a2db44;fill-rule:evenodd" d="m 48,1029.3622 4.273346,2.668 c -1.644084,4.8092 -4.146838,7.6958 -6.835938,9.8046 l -6.4375,-7.4726 2,-2 4.000092,1 z"/>
  <path style="fill:#a2db44;fill-rule:evenodd" d="m 35.999908,1036.3622 4.890624,8.4804 c -0.687898,0.4026 -1.39959,0.823 -2.05078,1.2228 -1.0834,0.665 -2.434894,1.335 -3.882812,1.785 l -1.957032,-9.4882 3,-2 z"/>
  <path style="opacity:0.2;fill-rule:evenodd" d="m 48.999908,1019.362 0,6 -8,0 0,-4 z"/>
  <path style="fill:#a2db44;fill-rule:evenodd" d="m 48.999908,1018.3622 0,6 -8,0 0,-4 z"/>
  <path style="opacity:0.1;fill:#ffffff;fill-rule:evenodd" d="M 14 26 C 14 26 11 25.8398 11 28.875 L 11 29.875 C 11 26.8398 14 27 14 27 L 32 27 L 50 27 C 50 27 53 26.8396 53 29.875 L 53 28.875 C 53 25.8396 50 26 50 26 L 32 26 L 14 26 z" transform="translate(0,988.3622)"/>
 </g>
</svg>
